X: 82
M: 6/8
L: 1/8
K: G
"a."G2B {Bc}BAB | dcB [c3E3] | egf def | gfe cBA |
{fga}b2f gfe | d2c B2e | f2e def | gfe def |
b2f gfe | d2c B2e | f2e def | g2 ((3a/g/f/) [gB]z :|
P: Var:
"a."GBB || "b."B/B/ || "b."B/c/ || "c."G2 ((3agf) |] y6 y6 y6 y6 y6 y6


